X: 114
T: Asker Oldum Piyade
C: (Anonim)
O: Turkey
F: http://compmusic.upf.edu/node/140
N: huzzam--turku--nimsofyan--asker_oldum--
N: makam= huzzam
N: form= turku
N: usul= nimsofyan = 2/4
M: 2/4
L: 1/16
K: C _1/4B _3/4e ^3/4f 
Q: 1/4=72
%%MIDI tuningsystem comma53
fg2g g2a2  | f2f4g2  | e2{f}ed f2{g}fe  | \
w:  ARANAĞME  |   |   | 
d2{e}dc B4  | Bc2c c2{d}cB  | 
w:   |   | 
B^AAG dccB  | B3/2^A/Bc defg  | agfa g4  | 
w:   |   |   | 
fg2g g2a2  | f2f4g2  | e2{f}ed f2{g}fe  | \
w:  ARANAĞME  |   |   | 
d2{e}dc B4  | Bc2c c2{d}cB  | 
w:   |   | 
B^AAG dccB  | B4-Bgfe  | dcB^A B4  | g3g g2{a}gf  | 
w:   |   |   |  As ker_ ol *  dum   | 
feed aggf  | f4 a3g  | g2{a}gf e2{f}ed  | \
w:  pi *  *  *  *  *  yâ  |  de   |  yâr  *  yan *  dım_ *  a  | 
d4 z4  | fg2g g2{a}gf  | 
w:  man    |  Bu gün  *  aş *  kım   | 
feed aggf  | f4 f2{g}fg  | fede f4  | g3g g2a2  | 
w:  zi *  *  *  *  *  yâ  |  de   SAZ  |   |  Ev li le rin   | 
f2f4g2  | e2{f}ed f2{g}fe  | d2{e}dc B4  | \
w:  sev da sı   |  on  *  par *  ma *  ğı   |  kı *  na *  lı    | 
Bc2c c2{d}cB  | B^AAG dccB  | 
w:  Be kâr *  lar *  dan   |  zi *  *  *  *  *  yâ  | 
B3/2^A/Bc defg  | agfa g4  | g3g g2a2  | \
w:  de   SAZ  |   |  Ev li le rin   | 
f2f4g2  | e2{f}ed f2{g}fe  | 
w:  sev da sı   |  on  *  par *  ma *  ğı   | 
d2{e}dc B4  | Bc2c c2{d}cB  | B^AAG dccB  | \
w:  kı *  na *  lı    |  Be kâr *  lar *  dan   |  zi *  *  *  *  *  yâ  | 
B4-Bgfe  | 
w:  de    | 
dcB^A B4  | |


